lib/flags/lk-sri-lanka.svg

<svg xmlns="http://www.w3.org/2000/svg" fill="none" aria-hidden="true" viewBox="0 0 42 30"><g id="Country=LK - Sri Lanka, Size=sm (36x24)" filter="url(#filter0_dd_91_26725)"><g clip-path="url(#clip0_91_26725)"><g id="flag"><mask id="mask0_91_26725" width="36" height="24" x="3" y="2" maskUnits="userSpaceOnUse" style="mask-type:alpha"><rect id="mask" width="36" height="24" x="3" y="2" fill="white"/></mask><g mask="url(#mask0_91_26725)"><g id="contents"><path id="background" fill="#FECA00" fill-rule="evenodd" d="M3 2H39V26H3V2Z" clip-rule="evenodd"/><rect id="Rectangle 63" width="6.75" height="20" x="5.25" y="4" fill="#1F8A6E"/><rect id="Rectangle 63_2" width="6.75" height="20" x="12" y="4" fill="#F56800"/><rect id="Rectangle 65" width="18" height="20" x="18.75" y="4" fill="#B01D00"/><rect id="divider" width="2.25" height="20" x="16.5" y="4" fill="#E8AA00"/><g id="mark"><path id="Path 223" fill="#FECA00" fill-rule="evenodd" d="M22.2381 8.17335C22.2381 8.17335 20.8052 8.16965 20.8052 10.3875V13.6396C20.8052 13.6396 20.123 13.7477 20.123 14.1244C20.123 14.501 20.2676 14.8306 20.5364 14.8306C20.8052 14.8306 21.0739 15.9355 20.8052 15.9355C20.5364 15.9355 20.2676 16.4096 20.5364 16.4096C20.6007 16.4096 20.6496 16.4019 20.6868 16.396C20.8052 16.3772 20.8052 16.3772 20.8052 16.7048C20.8052 17.1353 20.5364 17.3094 20.5364 17.3094C20.5364 17.3094 20.2833 17.2466 20.2833 17.5C20.2833 17.7534 20.5364 17.8175 20.5364 17.8175C20.5364 17.8175 20.6813 17.8732 20.4022 17.9932C20.123 18.1132 20.123 18.1712 20.123 18.1712H20.8052L21.1468 18.7267L21.4728 18.1712H22.1461C22.1461 18.1712 21.807 17.9784 21.7673 17.938C21.7275 17.8976 21.6795 17.8386 21.7673 17.771C21.7929 17.7513 21.8304 17.7363 21.8707 17.7201L21.8707 17.7201C21.9685 17.6809 22.0827 17.635 22.0827 17.5C22.0827 17.3094 21.6529 17.3094 21.6529 17.3094C21.6529 17.3094 21.3906 16.8885 21.4728 16.7048C21.4957 16.6534 21.5088 16.6076 21.52 16.5684C21.549 16.4674 21.5655 16.4096 21.7065 16.4096C21.9023 16.4096 22.0146 16.19 21.7673 15.9355C21.7673 15.9355 22.0508 16.2064 21.9675 16.5579C21.8842 16.9095 22.0541 17.0687 22.1461 17.0687C22.2381 17.0687 22.3845 16.9478 22.3845 16.9478C22.3845 16.9478 23.1489 17.5553 23.4848 17.5553C23.8208 17.5553 24.3024 17.0687 24.3024 17.0687L24.9939 17.4139C24.9939 17.4139 25.5001 18.0442 25.4255 18.4775C25.3508 18.9108 25.0623 19.1522 24.7228 19.0852C24.3833 19.0182 23.831 19.1557 23.789 19.3426C23.7826 19.3709 23.7732 19.4054 23.7628 19.4432C23.7046 19.6553 23.6176 19.9729 23.8837 19.8945C24.1974 19.8022 24.2588 19.7314 24.2588 19.7314C24.2588 19.7314 24.2176 19.8945 24.4702 19.8945C24.7228 19.8945 24.7958 19.7314 24.7958 19.7314C24.7958 19.7314 25.0577 19.8945 25.2416 19.8945C25.4255 19.8945 25.6314 19.7688 25.6314 19.7688C25.6314 19.7688 25.767 19.9556 26.0668 19.8945C26.3667 19.8335 26.5933 19.1379 26.3752 18.9821C26.3752 18.9821 27.0985 18.8888 27.2841 18.3299C27.2841 18.3299 26.5844 18.3207 26.6565 17.938C26.7287 17.5553 27.0982 17.3094 27.0982 17.3094C27.0982 17.3094 28.1621 16.8516 28.6199 16.7048C29.0777 16.5579 29.8386 16.4096 30.0271 16.4096C30.1039 16.4096 30.1587 16.5688 30.2329 16.7846C30.3411 17.0991 30.4907 17.5338 30.8099 17.771C31.348 18.1712 30.9811 19.0852 30.9811 19.0852C30.9811 19.0852 29.7836 19.1925 29.7836 19.4806C29.7836 19.7688 29.8029 19.8945 30.0271 19.8945C30.2514 19.8945 30.2469 19.7314 30.2469 19.7314C30.2469 19.7314 30.38 19.8945 30.5949 19.8945C30.8099 19.8945 30.9811 19.7314 30.9811 19.7314C30.9811 19.7314 31.0382 19.8945 31.3198 19.8945C31.6014 19.8945 31.5994 19.7314 31.5994 19.7314C31.5994 19.7314 31.6501 19.8945 31.8982 19.8945C32.1464 19.8945 32.6559 19.7314 32.6559 19.7314C32.6559 19.7314 32.7356 19.8945 32.9934 19.8945C33.2511 19.8945 33.2572 19.7314 33.2572 19.7314C33.2572 19.7314 33.3948 19.8945 33.6181 19.8945C33.8413 19.8945 33.9722 19.7314 33.9722 19.7314C33.9722 19.7314 34.2931 19.8945 34.5146 19.8945C34.736 19.8945 34.6564 19.6 34.5146 19.3426C34.4787 19.2775 34.4371 19.2219 34.3991 19.1711C34.287 19.021 34.2062 18.913 34.3962 18.7267C34.45 18.674 34.5117 18.6207 34.5734 18.5673L34.5734 18.5673C34.8035 18.3684 35.0348 18.1684 34.8654 17.9932C34.8151 17.9412 34.7562 17.9048 34.697 17.8683C34.503 17.7485 34.3055 17.6266 34.3962 16.9478C34.4505 16.5413 34.5537 16.2108 34.6495 15.904C34.7626 15.542 34.8654 15.2129 34.8654 14.8306C34.8654 14.1244 34.3962 13.3168 34.3962 13.3168C34.3962 13.3168 35.028 12.9249 35.028 12.1276C35.028 11.3303 33.6181 11.2434 33.6181 11.2434C33.6181 11.2434 32.2177 11.5638 31.5994 11.4036C31.4598 11.3674 31.3431 11.3414 31.2459 11.3198L31.2459 11.3198C30.9125 11.2455 30.8099 11.2227 30.8099 11.0173C30.8099 10.752 30.3598 11.2434 30.3598 11.2434C30.3598 11.2434 30.007 11.1175 30.2469 10.8571C30.4867 10.5966 30.5949 10.4945 30.5949 10.4945C30.5949 10.4945 30.3836 10.2804 30.0271 10.3875C29.6706 10.4945 29.607 10.672 29.607 10.672C29.607 10.672 29.2006 10.3022 29.4538 10.0336C29.7071 9.76508 30.0271 10.0336 30.0271 10.0336C30.0271 10.0336 30.3912 10.2026 30.4205 9.98079C30.4499 9.75899 30.4205 9.58211 30.4205 9.58211C30.4205 9.58211 31.334 9.815 31.0759 10.1772C30.8177 10.5395 30.9811 10.672 30.9811 10.672C30.9811 10.672 31.6089 10.7063 31.7223 10.3214C31.7653 10.1758 31.7581 10.0346 31.7268 9.92358C31.9077 9.99932 32.1125 10.0891 32.0553 10.238C31.9503 10.5115 31.7223 10.8571 31.7223 10.8571C31.7223 10.8571 32.3497 10.8245 32.5366 10.3875C32.7236 9.95043 32.6559 10.4945 32.6559 10.4945C32.6559 10.4945 32.8963 10.4869 33.2572 10.672C33.6181 10.8571 33.2572 10.3875 33.2572 10.3875C33.2572 10.3875 34.0063 11.2131 34.7148 11.1152C35.4234 11.0173 35.3841 10.4945 35.3841 10.4945C35.3841 10.4945 35.2162 10.238 34.8654 10.238C34.5146 10.238 34.7148 10.4945 34.7148 10.4945C34.7148 10.4945 35.0569 10.6677 34.5146 10.4945C34.3575 10.4444 34.1231 10.2825 33.8322 10.0815C33.1189 9.5888 32.0659 8.86147 30.9811 8.97286C29.4538 9.12967 28.921 9.73631 28.921 9.73631V9.23119C28.921 9.23119 28.6643 9.58211 28.4251 9.58211C28.1858 9.58211 27.5214 9.23119 27.5214 9.23119L27.0982 9.58211C27.0982 9.58211 26.9379 9.23119 26.6565 9.23119C26.3752 9.23119 26.3752 9.58211 26.3752 9.58211C26.3752 9.58211 26.0213 9.42741 25.6314 9.42741C25.4717 9.42741 25.3359 9.37557 25.2311 9.3356C25.0802 9.278 24.9939 9.24506 24.9939 9.42741C24.9939 9.46442 24.9949 9.49975 24.9958 9.53335V9.53336C25.0026 9.78025 25.0069 9.9343 24.6027 9.98079C24.1436 10.0336 23.789 10.0336 23.789 10.0336C23.789 10.0336 23.5141 9.73631 23.3003 9.73631C23.0865 9.73631 22.8387 9.96702 22.8387 10.1772C22.8387 10.3875 23.1158 10.987 23.3003 11.1152C23.3489 11.1489 23.3399 11.1452 23.3002 11.129C23.1893 11.0836 22.8387 10.9401 22.8387 11.2434C22.8387 11.4525 22.8975 11.5047 22.9403 11.5429C22.9819 11.5799 23.0086 11.6037 22.9526 11.7441C22.9293 11.8025 22.8972 11.8701 22.8638 11.9406C22.7342 12.2144 22.5834 12.5327 22.8387 12.5327C22.9766 12.5327 23.1071 12.5057 23.1999 12.4865L23.1999 12.4865C23.3234 12.461 23.3804 12.4492 23.3003 12.5327C23.2684 12.566 23.2254 12.6061 23.1821 12.6466L23.1821 12.6466C23.0348 12.7839 22.8834 12.9253 23.1455 12.818C23.2833 12.7616 23.3997 12.6798 23.4957 12.6124C23.636 12.5137 23.7327 12.4458 23.789 12.5327C23.8246 12.5877 23.796 12.6612 23.7716 12.7242C23.7309 12.829 23.7015 12.9047 23.997 12.818C24.1006 12.7876 24.1613 12.7639 24.195 12.7469C24.1964 12.7639 24.2123 12.7876 24.2588 12.818C24.3579 12.8827 24.3389 12.944 24.3244 12.9909C24.308 13.0439 24.2973 13.0784 24.4702 13.0784C24.6356 13.0784 24.8691 12.9644 25.0075 12.8969C25.1415 12.8315 25.1863 12.8096 24.9939 12.9768C24.8726 13.0822 24.6972 13.1525 24.5025 13.2305C24.0691 13.4041 23.5402 13.6159 23.3003 14.3386C22.9764 15.3141 23.1216 15.5151 23.143 15.5381L22.1461 14.5679C22.1461 14.5679 22.3845 14.4022 22.3845 14.1244C22.3845 13.8465 21.7673 13.6396 21.7673 13.6396C21.7673 13.6396 21.7888 10.1819 21.9675 9.42741C22.1461 8.67295 22.2381 8.17335 22.2381 8.17335ZM23.143 15.5381L23.1455 15.5405C23.1455 15.5405 23.1453 15.5403 23.1448 15.5398C23.1443 15.5395 23.1438 15.5389 23.143 15.5381ZM24.2261 12.7142C24.2149 12.7142 24.1933 12.7251 24.195 12.7469C24.2383 12.7251 24.2374 12.7142 24.2261 12.7142ZM31.7268 9.92358L31.7135 9.91805C31.5676 9.85703 31.442 9.80453 31.4903 9.73631C31.5581 9.64043 31.6752 9.74114 31.7268 9.92358ZM32.3864 17.4055C32.3864 17.4055 31.914 17.8174 32.2139 17.9079C32.3049 17.9354 32.4156 17.9507 32.5185 17.9649C32.7548 17.9976 32.95 18.0246 32.7709 18.1801C32.5139 18.4033 32.2963 18.7049 32.2963 18.9795C32.2963 19.2542 32.3037 19.486 32.3864 19.3701C32.4318 19.3065 32.6184 19.2398 32.8193 19.1681C32.9845 19.1091 33.1594 19.0466 33.2736 18.9795C33.4895 18.8527 33.4864 18.7155 33.4808 18.469C33.4798 18.4264 33.4788 18.3805 33.4788 18.3308C33.4788 17.9939 32.3864 17.4055 32.3864 17.4055ZM28.7209 11.8895C28.8311 11.8117 28.8381 10.8515 28.8381 10.8515C28.8381 10.8515 29.2244 10.9658 29.2244 11.1158C29.2244 11.2092 29.1952 11.2626 29.151 11.3433C29.1243 11.3921 29.0921 11.451 29.0576 11.5347C28.9728 11.741 29.2037 11.8702 29.4182 11.9902C29.4346 11.9994 29.4509 12.0085 29.4669 12.0176C29.6124 12.1 29.6532 11.9212 29.6847 11.7831C29.7022 11.7066 29.7168 11.6426 29.7448 11.6426C29.8233 11.6426 30.4087 11.7606 30.8493 11.9596C31.2338 12.1333 31.611 12.048 32.475 11.8528C32.6012 11.8242 32.7379 11.7933 32.8864 11.7606C34.0517 11.5036 34.2047 11.8895 34.3242 12.1932C34.4436 12.497 33.539 12.918 32.8864 12.9943C32.5997 13.0278 32.3513 13.0171 32.1228 13.0073C31.8313 12.9948 31.5721 12.9837 31.3069 13.0675C30.8911 13.1989 29.5911 13.1858 29.0836 13.1807C29.0136 13.18 28.9586 13.1794 28.9232 13.1794C28.6902 13.1794 28.6461 13.1141 28.5577 12.9829C28.5352 12.9496 28.5099 12.912 28.4778 12.8702C28.3198 12.6637 28.5116 12.5287 28.6359 12.5287C28.7603 12.5287 28.7209 12.2871 28.6359 12.1932C28.5509 12.0994 28.6108 11.9673 28.7209 11.8895Z" clip-rule="evenodd"/><path id="Combined Shape" fill="#FECA00" fill-rule="evenodd" d="M18.9428 4.12227V4.4833C18.9428 4.52776 18.9212 4.5884 18.897 4.65637C18.8203 4.87182 18.7174 5.16095 19.1925 5.24221C19.8175 5.34911 20.2779 5.59204 20.4179 5.82138C20.5076 5.96835 20.4823 5.72345 20.4526 5.43539L20.4526 5.43539C20.4359 5.27396 20.4179 5.09898 20.4179 4.97182C20.4179 4.61778 19.9717 3.92787 19.6556 4.12227C19.3394 4.31666 18.9428 4.12227 18.9428 4.12227ZM36.5652 23.5072V23.8683C36.5652 23.8683 36.1686 23.6739 35.8524 23.8683C35.5363 24.0627 35.0901 23.3728 35.0901 23.0187C35.0901 22.8916 35.0721 22.7167 35.0554 22.5553L35.0554 22.5552L35.0554 22.5552C35.0257 22.2671 35.0004 22.0222 35.0901 22.1692C35.2301 22.3985 35.6905 22.6414 36.3155 22.7483C36.7906 22.8296 36.6877 23.1187 36.611 23.3342L36.611 23.3342C36.5868 23.4022 36.5652 23.4628 36.5652 23.5072ZM18.9428 23.5073V23.8683C18.9428 23.8683 19.3394 23.6739 19.6556 23.8683C19.9717 24.0627 20.4179 23.3728 20.4179 23.0187C20.4179 22.8916 20.4359 22.7166 20.4526 22.5552C20.4823 22.2671 20.5076 22.0222 20.4179 22.1692C20.2779 22.3985 19.8175 22.6414 19.1925 22.7483C18.7174 22.8296 18.8203 23.1187 18.897 23.3342C18.9212 23.4022 18.9428 23.4628 18.9428 23.5073ZM36.5652 4.4833V4.12227C36.5652 4.12227 36.1686 4.31666 35.8524 4.12227C35.5363 3.92787 35.0901 4.61778 35.0901 4.97182C35.0901 5.09898 35.0721 5.27396 35.0554 5.43539C35.0257 5.72345 35.0004 5.96835 35.0901 5.82138C35.2301 5.59204 35.6905 5.34911 36.3155 5.24221C36.7906 5.16095 36.6877 4.87182 36.611 4.65637C36.5868 4.5884 36.5652 4.52776 36.5652 4.4833Z" clip-rule="evenodd"/></g></g></g></g></g></g><defs><filter id="filter0_dd_91_26725" width="42" height="30" x="0" y="0" color-interpolation-filters="sRGB" filterUnits="userSpaceOnUse"><feFlood flood-opacity="0" result="BackgroundImageFix"/><feColorMatrix in="SourceAlpha" result="hardAlpha" values="0 0 0 0 0 0 0 0 0 0 0 0 0 0 0 0 0 0 127 0"/><feOffset dy="1"/><feGaussianBlur stdDeviation="1"/><feColorMatrix values="0 0 0 0 0.0627451 0 0 0 0 0.0941176 0 0 0 0 0.156863 0 0 0 0.06 0"/><feBlend in2="BackgroundImageFix" result="effect1_dropShadow_91_26725"/><feColorMatrix in="SourceAlpha" result="hardAlpha" values="0 0 0 0 0 0 0 0 0 0 0 0 0 0 0 0 0 0 127 0"/><feOffset dy="1"/><feGaussianBlur stdDeviation="1.5"/><feColorMatrix values="0 0 0 0 0.0627451 0 0 0 0 0.0941176 0 0 0 0 0.156863 0 0 0 0.1 0"/><feBlend in2="effect1_dropShadow_91_26725" result="effect2_dropShadow_91_26725"/><feBlend in="SourceGraphic" in2="effect2_dropShadow_91_26725" result="shape"/></filter><clipPath id="clip0_91_26725"><rect width="36" height="24" x="3" y="2" fill="white" rx="2"/></clipPath></defs></svg>

<svg xmlns="http://www.w3.org/2000/svg" fill="none" aria-hidden="true" viewBox="0 0 42 30"><g filter="url(#a)"><g clip-path="url(#b)"><mask id="c" width="36" height="24" x="3" y="2" maskUnits="userSpaceOnUse" style="mask-type:alpha"><path fill="#fff" d="M3 2h36v24H3z"/></mask><g mask="url(#c)"><path fill="#FECA00" fill-rule="evenodd" d="M3 2h36v24H3V2Z" clip-rule="evenodd"/><path fill="#1F8A6E" d="M5.25 4H12v20H5.25z"/><path fill="#F56800" d="M12 4h6.75v20H12z"/><path fill="#B01D00" d="M18.75 4h18v20h-18z"/><path fill="#E8AA00" d="M16.5 4h2.25v20H16.5z"/><path fill="#FECA00" fill-rule="evenodd" d="M22.238 8.173s-1.433-.003-1.433 2.214v3.253s-.682.108-.682.484c0 .377.145.707.413.707.27 0 .538 1.104.27 1.104-.27 0-.538.475-.27.475a.9.9 0 0 0 .15-.014c.12-.019.12-.019.12.309 0 .43-.27.604-.27.604s-.253-.062-.253.191.253.317.253.317.145.056-.134.176-.279.178-.279.178h.682l.342.556.326-.556h.673s-.339-.193-.379-.233c-.04-.04-.087-.1 0-.167a.403.403 0 0 1 .104-.05c.098-.04.212-.086.212-.221 0-.19-.43-.19-.43-.19s-.262-.421-.18-.605a.978.978 0 0 0 .047-.137c.029-.1.046-.158.186-.158.196 0 .309-.22.061-.475 0 0 .284.271.2.623-.083.352.087.51.18.51.091 0 .238-.12.238-.12s.764.607 1.1.607c.336 0 .817-.486.817-.486l.692.345s.506.63.431 1.063c-.074.434-.363.675-.702.608-.34-.067-.892.07-.934.258a2.427 2.427 0 0 1-.026.1c-.058.212-.145.53.12.451.314-.092.376-.163.376-.163s-.041.163.211.163c.253 0 .326-.163.326-.163s.262.163.446.163c.183 0 .39-.125.39-.125s.135.187.435.126.526-.757.308-.913c0 0 .724-.093.91-.652 0 0-.7-.01-.628-.392.072-.383.441-.629.441-.629s1.064-.457 1.522-.604c.458-.147 1.219-.295 1.407-.295.077 0 .132.159.206.375.108.314.258.749.577.986.538.4.171 1.314.171 1.314s-1.197.107-1.197.396c0 .288.019.413.243.413s.22-.163.22-.163.133.163.348.163a.633.633 0 0 0 .386-.163s.057.163.339.163c.281 0 .28-.163.28-.163s.05.163.298.163.758-.163.758-.163.08.163.337.163c.258 0 .264-.163.264-.163s.138.163.361.163a.484.484 0 0 0 .354-.163s.321.163.543.163c.221 0 .141-.294 0-.551-.036-.066-.078-.121-.116-.172-.112-.15-.193-.258-.003-.444.054-.053.116-.106.177-.16.23-.199.462-.399.292-.574a.829.829 0 0 0-.168-.125c-.194-.12-.392-.241-.3-.92.053-.407.157-.737.253-1.044.113-.362.215-.691.215-1.073 0-.707-.469-1.514-.469-1.514s.632-.392.632-1.19c0-.797-1.41-.884-1.41-.884s-1.4.32-2.019.16a9.856 9.856 0 0 0-.353-.083c-.333-.075-.436-.097-.436-.303 0-.265-.45.226-.45.226s-.353-.126-.113-.386.348-.362.348-.362-.211-.215-.568-.107c-.356.107-.42.284-.42.284s-.406-.37-.153-.638c.253-.269.573 0 .573 0s.364.169.393-.053c.03-.222 0-.399 0-.399s.914.233.656.595c-.258.363-.095.495-.095.495s.628.034.741-.35a.725.725 0 0 0 .005-.398c.18.075.385.165.328.314-.105.274-.333.62-.333.62s.628-.034.815-.47c.187-.438.119.107.119.107s.24-.008.601.177 0-.285 0-.285.75.826 1.458.728c.708-.098.67-.62.67-.62s-.169-.257-.52-.257c-.35 0-.15.257-.15.257s.342.173-.2 0c-.157-.05-.392-.212-.683-.413-.713-.493-1.766-1.22-2.85-1.11-1.528.158-2.061.764-2.061.764v-.505s-.257.351-.496.351c-.24 0-.904-.35-.904-.35l-.423.35s-.16-.35-.441-.35c-.282 0-.282.35-.282.35s-.354-.155-.744-.155c-.16 0-.295-.051-.4-.091-.15-.058-.237-.09-.237.091 0 .037 0 .073.002.106.007.247.01.401-.393.448-.46.053-.814.053-.814.053s-.275-.298-.489-.298c-.213 0-.461.231-.461.441s.277.81.461.938c.049.034.04.03 0 .014-.11-.045-.461-.189-.461.114 0 .21.059.262.101.3.042.037.069.06.013.201a3.796 3.796 0 0 1-.09.197c-.129.273-.28.592-.024.592.138 0 .268-.027.36-.046.124-.026.181-.038.101.046-.032.033-.075.073-.118.114-.147.137-.299.278-.037.171a1.71 1.71 0 0 0 .35-.206c.141-.098.238-.166.294-.08.036.056.007.13-.017.192-.041.105-.07.18.225.094.104-.03.164-.054.198-.071.001.017.017.04.064.071.099.065.08.126.065.173-.016.053-.027.087.146.087.166 0 .4-.114.538-.181.134-.066.178-.087-.014.08-.121.105-.297.175-.491.253-.434.174-.963.386-1.203 1.109-.324.975-.178 1.176-.157 1.2l-.997-.971s.238-.166.238-.444c0-.277-.617-.484-.617-.484s.022-3.458.2-4.213c.18-.754.271-1.254.271-1.254Zm.905 7.365.002.002-.002-.002Zm1.083-2.824c-.011 0-.033.011-.031.033.043-.022.042-.033.031-.033Zm7.5-2.79-.012-.006c-.146-.061-.272-.113-.224-.182.068-.096.185.005.237.188Zm.66 7.482s-.472.411-.172.502a2.1 2.1 0 0 0 .305.057c.236.033.431.06.252.215-.257.223-.475.525-.475.8 0 .274.008.506.09.39.046-.064.232-.13.433-.202.165-.059.34-.121.455-.188.215-.127.212-.265.207-.511a5.767 5.767 0 0 1-.002-.138c0-.337-1.093-.925-1.093-.925Zm-3.665-5.516c.11-.078.117-1.039.117-1.039s.386.115.386.265a.422.422 0 0 1-.073.227 1.797 1.797 0 0 0-.093.192c-.085.206.146.335.36.455l.049.028c.145.082.186-.097.218-.235.017-.076.032-.14.06-.14.078 0 .664.118 1.104.317.385.173.762.088 1.626-.107.126-.029.263-.06.411-.092 1.166-.257 1.319.129 1.438.432.12.304-.785.725-1.438.801-.286.034-.535.023-.763.013-.292-.012-.55-.023-.816.06-.416.132-1.716.119-2.223.114l-.16-.002c-.234 0-.278-.065-.366-.196-.023-.033-.048-.071-.08-.113-.158-.206.034-.341.158-.341s.085-.242 0-.336c-.085-.094-.025-.226.085-.303Zm-9.778-7.768v.361c0 .045-.022.105-.046.173-.077.216-.18.505.296.586.624.107 1.085.35 1.225.58.09.146.064-.099.035-.387a5.096 5.096 0 0 1-.035-.463c0-.354-.446-1.044-.762-.85-.317.195-.713 0-.713 0Zm17.622 19.385v.361s-.396-.194-.713 0c-.316.195-.762-.495-.762-.85 0-.126-.018-.301-.035-.463-.03-.288-.055-.533.035-.386.14.23.6.472 1.225.58.476.08.373.37.296.585-.024.068-.046.129-.046.173Zm-17.622 0v.361s.396-.194.713 0c.316.195.762-.495.762-.85 0-.126.018-.301.035-.463.03-.288.055-.533-.035-.386-.14.23-.6.472-1.226.58-.475.08-.372.37-.295.585.024.068.046.129.046.173ZM36.565 4.483v-.36s-.396.194-.713 0c-.316-.195-.762.495-.762.849 0 .127-.018.302-.035.463-.03.288-.055.533.035.386.14-.229.6-.472 1.225-.579.476-.081.373-.37.296-.586-.024-.068-.046-.128-.046-.173Z" clip-rule="evenodd"/></g></g></g><defs><clipPath id="b"><rect width="36" height="24" x="3" y="2" fill="#fff" rx="2"/></clipPath><filter id="a" width="42" height="30" x="0" y="0" color-interpolation-filters="sRGB" filterUnits="userSpaceOnUse"><feFlood flood-opacity="0" result="BackgroundImageFix"/><feColorMatrix in="SourceAlpha" result="hardAlpha" values="0 0 0 0 0 0 0 0 0 0 0 0 0 0 0 0 0 0 127 0"/><feOffset dy="1"/><feGaussianBlur stdDeviation="1"/><feColorMatrix values="0 0 0 0 0.0627451 0 0 0 0 0.0941176 0 0 0 0 0.156863 0 0 0 0.06 0"/><feBlend in2="BackgroundImageFix" result="effect1_dropShadow_91_26725"/><feColorMatrix in="SourceAlpha" result="hardAlpha" values="0 0 0 0 0 0 0 0 0 0 0 0 0 0 0 0 0 0 127 0"/><feOffset dy="1"/><feGaussianBlur stdDeviation="1.5"/><feColorMatrix values="0 0 0 0 0.0627451 0 0 0 0 0.0941176 0 0 0 0 0.156863 0 0 0 0.1 0"/><feBlend in2="effect1_dropShadow_91_26725" result="effect2_dropShadow_91_26725"/><feBlend in="SourceGraphic" in2="effect2_dropShadow_91_26725" result="shape"/></filter></defs></svg>
